!!!SOCIAL_FUNCTION:	memorial ceremony songs
!!!PDT:	1932
!!!OTL: No_30_The_Superman_Speaks.krn
!!!REG: Southwest
!!!LANG: Non-Tone
!!!LING_GROUP: Yuman-Cochimi
**kern	**kern
*staff2	*staff1
=1-	=1-
*clefF4	*clefF4
*k[f#c#g#d#a#]	*k[f#c#g#d#a#]
*M2/4	*M2/4
8GG#/L	8F#\L
8GG#/J	8F#\J
8GG#/L	8c#\L
8GG#/J	8c#\J
=2	=2
8GG#/L	4.c#\
8GG#/J	.
8GG#/L	.
8GG#/J	8G#\
=3!|:	=3!|:
2r	8B\L
.	8G#\J
.	8B\L
.	8c#\J
=4	=4
2r	16c#\LL
.	16B\J
.	(8B\J
.	16B\)
.	16r
.	8F#\
=5	=5
2r	16G#\LL
.	16F#\J
.	8F#\J
.	8F#\L
.	8B\J
=6	=6
2r	8B\L
.	8A#\J
.	8G#\L
.	8F#\J
=7	=7
2r	8F#\
.	8r
.	4F#\
=8	=8
2r	16G#\LL
.	16F#\J
.	8F#\J
.	8F#\L
.	8F#\J
=9	=9
2r	2F#\
=10:|!	=10:|!
2r	4r
.	8r
.	8F#\
=11	=11
2r	4G#\
.	8c#\L
.	8B\J
=12	=12
2r	(4c#\
.	16c#\LL)
.	16B\J
.	8B\J
=13	=13
2r	8G#\L
.	16F#\Jk
.	16r
.	8B\L
.	8c#\J
=14	=14
2r	16c#\LL
.	16B\J
.	(8B\J
.	16B\)
.	16r
.	8F#\
=15	=15
2r	16G#\LL
.	16F#\J
.	8F#\J
.	8G#\L
.	8B\J
=16	=16
2r	8B\L
.	8A#\J
.	8G#\L
.	8F#\J
=17	=17
2r	8F#\
.	8r
.	4F#\
=18	=18
2r	16G#\LL
.	16F#\J
.	8F#\J
.	8F#\L
.	8F#\J
=19	=19
2r	2F#\
=20	=20
2r	8F#\L
.	8F#\J
.	8F#\L
.	8F#\J
=21	=21
2r	2F#\
==	==
*-	*-
